svgs/sharp-regular/light-switch-off.svg

<svg xmlns="http://www.w3.org/2000/svg" viewBox="0 0 384 512"><!--! Font Awesome Pro 6.6.0 by @fontawesome - https://fontawesome.com License - https://fontawesome.com/license (Commercial License) Copyright 2024 Fonticons, Inc. --><path d="M168 464l0-16 48 0 0 16 120 0 0-416L216 48l0 16-48 0 0-16L48 48l0 416 120 0zM48 512L0 512l0-48L0 48 0 0 48 0 336 0l48 0 0 48 0 416 0 48-48 0L48 512zM240 256l0-112-96 0 0 112 96 0zM144 416l-48 0 0-48 0-224 0-48 48 0 96 0 48 0 0 48 0 224 0 48-48 0-96 0z"/></svg>

<svg xmlns="http://www.w3.org/2000/svg" viewBox="0 0 384 512"><!--! Font Awesome Pro 6.4.0 by @fontawesome - https://fontawesome.com License - https://fontawesome.com/license (Commercial License) Copyright 2023 Fonticons, Inc. --><path d="M168 464V448h48v16H336V48H216V64H168V48H48V464H168zM48 512H0V464 48 0H48 336h48V48 464v48H336 48zM240 256V144H144V256h96zM144 416H96V368 144 96h48 96 48v48V368v48H240 144z"/></svg>
